X: 1954
T: Arrochar Bridge
R: reel
M: 4/4
K: Amajor
|:F|E3 f ed c2|FGAB AGFG|E3 f ed c2|BcdB cAA:|
|:g|abae ccce|fefa fffe|fgae cAec|BABc A/A/A A:|

